icons/mobile/72/svg/cloud-72.svg

<svg width="72" height="72" viewBox="0 0 72 72" fill="none" xmlns="http://www.w3.org/2000/svg">
<path fill-rule="evenodd" clip-rule="evenodd" d="M38.5 11.499C48.701 11.499 57 19.798 57 29.998V32.7109L57.001 32.7099C63.2479 33.8399 68.0009 39.3159 68.001 45.8828C68.001 52.4998 63.0939 58.1902 56.5869 59.1172C50.1519 60.0351 43.6026 60.499 37.0996 60.499C36.5977 60.499 36.0975 60.4962 35.5977 60.4912C29.6308 60.4252 23.609 59.9649 17.6992 59.125C9.88922 58.013 4 51.2467 4 43.3847C4.00014 34.625 11.1279 27.4982 19.8887 27.498H20.168C21.392 18.475 29.146 11.499 38.5 11.499ZM38.5 16.748C31.194 16.748 25.25 22.691 25.25 29.997C25.25 31.513 24.016 32.747 22.5 32.747H19.8887C14.0229 32.7472 9.25014 37.519 9.25 43.3847C9.25 48.6487 13.2015 53.1817 18.4395 53.9277C24.1273 54.7367 29.9204 55.1792 35.6562 55.2422C36.1592 55.2482 36.6631 55.2509 37.166 55.2509C43.3649 55.2509 49.6498 54.8028 55.8457 53.9209C59.7817 53.3589 62.75 49.9038 62.75 45.8828C62.7499 41.397 59.1001 37.7472 54.6133 37.747H54.5C52.984 37.747 51.75 36.513 51.75 34.997V29.997C51.75 22.691 45.806 16.748 38.5 16.748Z" fill="black"/>
</svg>

<!-- This Source Code Form is subject to the terms of the Mozilla Public
   - License, v. 2.0. If a copy of the MPL was not distributed with this
   - file, You can obtain one at http://mozilla.org/MPL/2.0/. -->
<svg xmlns="http://www.w3.org/2000/svg" width="72" height="72" fill="none" viewBox="0 0 72 72">
    <path fill="#000" fill-rule="evenodd" d="M38.5 11.499c10.201 0 18.5 8.299 18.5 18.499v2.713l.001-.001c6.247 1.13 11 6.606 11 13.173 0 6.617-4.907 12.307-11.414 13.234a138.4 138.4 0 0 1-20.99 1.374A139 139 0 0 1 17.7 59.125C9.89 58.013 4 51.247 4 43.385c0-8.76 7.128-15.887 15.889-15.887h.279c1.224-9.023 8.978-15.999 18.332-15.999m0 5.249c-7.306 0-13.25 5.943-13.25 13.249a2.754 2.754 0 0 1-2.75 2.75h-2.611c-5.866 0-10.639 4.772-10.639 10.638 0 5.264 3.951 9.797 9.19 10.543a133 133 0 0 0 18.726 1.323c6.199 0 12.484-.448 18.68-1.33 3.936-.562 6.904-4.017 6.904-8.038 0-4.486-3.65-8.136-8.137-8.136H54.5a2.754 2.754 0 0 1-2.75-2.75v-5c0-7.306-5.944-13.249-13.25-13.249" clip-rule="evenodd" />
</svg>
